packages/components/src/telekom/icons/weather/moon-cloudy-b/default.svg

<?xml version="1.0" encoding="UTF-8"?>
<svg width="24px" height="24px" viewBox="0 0 24 24" version="1.1" xmlns="http://www.w3.org/2000/svg" xmlns:xlink="http://www.w3.org/1999/xlink">
    <title>icon/weather/moon-cloudy-b/default</title>
    <g id="icon/weather/moon-cloudy-b/default" stroke="none" stroke-width="1" fill="none" fill-rule="evenodd">
        <path d="M11.4092,7.2516 C13.982,7.2516 16.2484,8.8548 17.1288,11.2672 C18.6384,12.0624 19.6,13.644 19.6,15.3692 C19.6,17.8518667 17.6494522,19.8842324 15.2102381,19.995226 L15,20 L5,20 C2.684,20 0.8,18.1036 0.8,15.7724 C0.8,14.2428 1.6256,12.8396 2.9336,12.094 C3.0452,10.1024 4.6908,8.5168 6.6972,8.5168 C6.9924,8.5168 7.2868,8.5528 7.5772,8.6236 C8.6628,7.7364 10.0108,7.2516 11.4092,7.2516 Z M11.4096,8.4516 C10.2841714,8.4516 9.19875102,8.84443878 8.32499942,9.56254096 L8.1272,9.734 L7.8644,9.9748 L7.5268,9.8584 C7.2552,9.7648 6.976,9.7172 6.6976,9.7172 C5.7568,9.7172 4.9328,10.2296 4.4848,10.9928 C4.147375,11.56755 4.11245,12.1267969 4.12695303,12.4879181 L4.1536,12.8404 L3.7812,13.008 C2.6992,13.4948 2,14.58 2,15.7724 C2,17.3819857 3.25120204,18.702575 4.82397172,18.7948498 L5,18.8 L15,18.8 C16.8748,18.8 18.4,17.2608 18.4,15.3692 C18.4,14.09164 17.68883,12.919853 16.5724014,12.3308825 L16.3928,12.2428 L16.1504,12.1324 L16.0696,11.8784 C15.4172,9.8288 13.5444,8.4516 11.4096,8.4516 Z M18.6608,3.68 C19.2944,3.5136 19.932,3.5164 20.5276,3.6584 C19.1568,4.3176 18.3992,5.874 18.8,7.4 C19.25,9.1136 20.9908,10.1424 22.7048,9.722 C22.2024,10.3868 21.484,10.896 20.6156,11.124 C20.0896,11.262 19.5608,11.2828 19.0556,11.2052 C18.7636,10.9188 18.4416,10.6592 18.0884,10.4364 C17.578,9.2684 16.778,8.2764 15.7944,7.5324 C15.7332,5.7748 16.888,4.1456 18.6608,3.68 Z" id="Shape" fill="#262626" fill-rule="nonzero"></path>
    </g>
</svg>

<svg width="24" height="24" xmlns="http://www.w3.org/2000/svg"><path d="M11.41 7.252a6.077 6.077 0 015.719 4.015A4.644 4.644 0 0119.6 15.37c0 2.483-1.95 4.515-4.39 4.626L15 20H5C2.684 20 .8 18.104.8 15.772c0-1.53.826-2.932 2.134-3.678.111-1.992 1.757-3.577 3.763-3.577.295 0 .59.036.88.107a6.047 6.047 0 013.832-1.372zm0 1.2c-1.126 0-2.211.392-3.085 1.11l-.198.172-.263.24-.337-.116a2.542 2.542 0 00-.83-.14c-.94 0-1.764.512-2.212 1.275a2.696 2.696 0 00-.358 1.495l.027.352-.373.168A3.033 3.033 0 002 15.772c0 1.61 1.251 2.93 2.824 3.023L5 18.8h10c1.875 0 3.4-1.54 3.4-3.43a3.44 3.44 0 00-1.828-3.04l-.18-.087-.242-.11-.08-.255a4.883 4.883 0 00-4.66-3.426zm7.25-4.772a3.83 3.83 0 011.868-.022 3.239 3.239 0 002.177 6.064 3.829 3.829 0 01-3.65 1.483 5.807 5.807 0 00-.967-.769 7.317 7.317 0 00-2.294-2.904 3.847 3.847 0 012.867-3.852z" fill="#000" fill-rule="evenodd"/></svg>
